X:21205 
T:YELLOW WATTLE, The 
B:DMI.0353
Z:Nordberg/Black
R:jig
%Q:1/4=160
M:6/8
L:1/8
K:G
"D mix"
B|cdA AGE|ABA AGE|dcA AGE|GAG GED|
dcA AGE|ABA AGE|dcA ABc|dcA GE:|
%
D|G2G AEE|AGG AEE|G2G AEE|AGG GEA|
G2G AEE|AGG AEE|G2G ABc|dcA GE:|
%
E|DFA DED|DFA GED|DFA DED|DEF GED|
DFA DEE|DFA GED|DFA ABc|dcA GE:|
%
D|EGE FED|AFD FED|EGE FED|GEA GED|
EGE FED|AFD FED|DFA ABc|1 "thru"dcA GE:|
[2 "final" GFE HD3|]

%%%

